assets/icons/qvision/folder_special.svg

<svg xmlns="http://www.w3.org/2000/svg" height="24" viewBox="0 0 24 24" width="24"><path d="M0 0h24v24H0V0z" fill="none"/><path d="M20 6h-8l-2-2H4c-1.1 0-2 .9-2 2v12c0 1.1.9 2 2 2h16c1.1 0 2-.9 2-2V8c0-1.1-.9-2-2-2zm-2.06 11L15 15.28 12.06 17l.78-3.33-2.59-2.24 3.41-.29L15 8l1.34 3.14 3.41.29-2.59 2.24.78 3.33z"/></svg>

<svg width="24" height="24" viewBox="0 0 24 24" fill="none" xmlns="http://www.w3.org/2000/svg">
<g clip-path="url(#clip0_147_5959)">
<path d="M20 6H12L10 4H4C2.9 4 2 4.9 2 6V18C2 19.1 2.9 20 4 20H20C21.1 20 22 19.1 22 18V8C22 6.9 21.1 6 20 6ZM17.94 17L15 15.28L12.06 17L12.84 13.67L10.25 11.43L13.66 11.14L15 8L16.34 11.14L19.75 11.43L17.16 13.67L17.94 17Z" fill="#323232"/>
</g>
<defs>
<clipPath id="clip0_147_5959">
<rect width="24" height="24" fill="white"/>
</clipPath>
</defs>
</svg>
